X: 1
T: Down East Breakdown
R: reel
Z: 2021 John Chambers <jc:trillian.mit.edu>
S: Fiddle Hell "handout" 2021-4-14
M: 2/4
L: 1/16
K: G
Bc |\
dedc Gdgd | eu[e2c2]u[ec] [e2c2](AB) | cdcB Adfd | eu[g2d2]u[gd] [g2d2](Bc) ||\
dedc Gdgd | eu[e2c2]u[ec] [e2c2](ag) |[1 fafe dfaf | gfga g4 :|[2 fafe dcAF |
GBAF G2 ||\
|: DC |\
B,uG,2uG, B,DGD | EGED C2AG | FAFE DFAF | GFGA BGDC ||\
B,uG,2uG, B,DGD | EuC2uC C2AG | FAFE DFAc | BG2G G2 :|
